X:1
T:Title
%%score 1 { ( 2 4 ) | ( 3 5 ) }
L:1/8
Q:1/4=100
M:3/4
K:Ab
V:1 treble nm="Akkordion"
V:2 treble nm="Grand Piano"
V:4 treble 
V:3 bass 
V:5 bass 
V:1
 A2 A2 E2 | A4 G2 | F4 C2 | E6 | E2 A2 c2 | e3 c A2 | E2 B4 | c6 | z6 | z6 | z6 | z6 | z6 | z6 | %14
w: John~H.~Gower * *||||||||||||||
 z6 | z6 | z6 | z6 | z6 | z6 | z6 | z6 | z6 | z6 |] %24
w: ||||||||||
V:2
 [A,CEA]2 [A,CEA]2 [G,DE]2 | [A,CEA]4 [G,CEG]2 | [A,CF]4[K:bass] [A,C]2 | E6 | %4
 E,2- [E,-CEA]2 [E,EAc]2 | e3 c A2 | E2 [B,EB]4 | [CEc]6 | [C=Ec]2 [CFc]2 [DG]2 | [FA]4 z2 | %10
 F2 z2 z2 | G6[K:bass] | E2[K:treble] E2 E2 | B4 z2 | [A,CF]2 [A,=DF]4 | [G,E]6 | %16
 [EGd]2 [EGc]2 [EGB]2 | [EAc]4 [E_Gc]2 | [DFB]4 [CFA]2 | G4 z2 | E2 F2 C2 | E6[K:bass] | %22
 D2 D2 [G,D]2 | [A,C]6 |] %24
V:3
 [A,,,A,,]2 [A,,,A,,]2 [B,,,B,,]2 | [C,,C,]4 [C,,C,]2 | [F,,C,]4 [F,,C,F,]2 | [E,,A,,E,]4 D,,2 | %4
 C,,2 E,,2 A,,2 | [C,E,A,]4 [F,A,CF]2 | [E,A,C]2 [B,,E,G,]4 | [A,,E,A,]6 | C,2 =D,2 =E,2 | %9
 F,3 G, A,2 | =D,2 B,,2 [D,A,B,]2 | [G,B,]6 | [C,G,C]2 [C,G,C]2 [C,G,C]2 | G,3 A, [B,,G,]2 | %14
 B,,2 B,,4 | E,6 | B,2 E,2 D2 | C2 B,2 A,2 | D,4 D,2 | z2 z2 F2 | E,2 F,2 C,2 | E,6 | %22
 [B,,F,A,]2 [B,,F,A,]2 [E,,E,]2 | [A,,E,]6 |] %24
V:4
 x6 | x6 | x4[K:bass] x2 | [A,C]4 [B,,D,G,B,]2 | [A,CE]2 A,4 | [EA]4 z2 | x6 | x6 | x6 | %9
 C3- [CEG] [CF]2 | [B,B]2- [B,=DB]2 F2 | z2 z2[K:bass] =D,2 | x2[K:treble] x4 | E3- [Ec] [EB]2 | %14
 x6 | x6 | x6 | x6 | x6 | [_C=D]6 | x6 | z2 z[K:bass] D, C,2 | x6 | x6 |] %24
V:5
 x6 | x6 | x6 | x6 | x6 | x6 | x6 | x6 | x6 | x6 | x6 | E,4 z2 | x6 | B,,4 z2 | x6 | x6 | x6 | x6 | %18
 x6 | =D,6 | x6 | x6 | x6 | x6 |] %24

